X: 101872
T: Josephine Marsh's
S: "The Killavil Sessions" (Ceoltoiri Coleman)
L: 1/8
M: 4/4
R: reel
K: F
A | d2 cA dAcA | G2 AF GAFD | CF F2 CFAc | d3e fage |
d2 cA dAcA | G2 AF GAFD | CF F2 DFBd | cfag f3 :|
z | afgf afgf | dgfd cFAd | c2 Ad cdfa | gfga g4 |
afgf afgf | dgfd cFAd | c2 Ad cdfa | gfga f4 |
afgf afgf | dgfd cFAd | c2 Ad cdfa | gfga g4 |
agfe f3g | defd cAFD | CF F2 DFBd | cfag f4 |]
